public/avatar/item2/58.svg

<svg xmlns:xlink="http://www.w3.org/1999/xlink" height="99.2" width="82.2" xmlns="http://www.w3.org/2000/svg"><use height="16.9" transform="translate(9.65 72.45)" width="18.6" xlink:href="#a"/><defs><g id="a" fill-rule="evenodd"><path d="M-10.75 35.7q-1.35 2-3.7 2.5t-4.35-.85q-2-1.3-2.45-3.65-.45-2.35.85-4.4 1.35-2 3.7-2.5t4.35.8q2 1.3 2.45 3.7.5 2.4-.85 4.4" fill="#0d090e" transform="translate(21.35 -25.7)"/><path d="M-19.7 29.75q1.15-1.7 3.2-2.15 2-.4 3.7.7 1.75 1.15 2.1 3.15.4 2.05-.75 3.8-1.1 1.75-3.15 2.15-2 .45-3.75-.7-1.7-1.15-2.1-3.15-.4-2.05.75-3.8" fill="#a9d2d4" transform="translate(21.35 -25.7)"/><path d="m-19 28.95.55-.25q.9.05 2.7 1.4 1.75 1.2 3.45 2.35 1.35.85 1.5 1.4-4.3 2.8-8.2-4.9" fill="#286f79" transform="translate(21.35 -25.7)"/><path d="M-10.1 32.3q-.95.9-2.4.7-1.45-.25-2.55-1.45-1.1-1.15-1.15-2.6-.1-1.5.85-2.35 2.3-2.15 4.95.7 1.1 1.2 1.2 2.65.05 1.5-.9 2.35" fill="#0d090e" transform="translate(21.35 -25.7)"/><path d="M-15 27.35q2-1.75 4 .5 1 1.05.9 2.35 0 .95-.75 1.7-1.95 1.75-4-.5-1.6-1.85-.5-3.6l.35-.45" fill="#a9d2d4" transform="translate(21.35 -25.7)"/><path d="M-11.45 30.8q-1.1 1-2.3-.35-1.25-1.35-.15-2.35 1.05-.95 2.3.4 1.2 1.25.15 2.3" fill="#0d090e" transform="translate(21.35 -25.7)"/><path d="M-13.9 33.6q.25.5 1.25.4l1.9-.2-.6 1.4q-1.15 1.75-3.2 2.2-2 .45-3.75-.7-1.7-1.15-2.1-3.15-.4-2.1.75-3.8l.65-.8.6 1.2q.45.8 1.25 1 2.4.75 3.25 2.45" fill="#429aa4" transform="translate(21.35 -25.7)"/><path d="M-17.9 35.2q-.9-.55-.9-1.8 0-1.35.4-.75.4.55 2.55 1.5 2.45 1.55 2.05 1.75-1.35.95-4.1-.7" fill="#286f79" transform="translate(21.35 -25.7)"/><path d="M-17.2 30.75q-1.05-.45-1.6-1.4l2.5-1.6q-.85.9.1 2.5l-1 .5" fill="#e1ffff" transform="translate(21.35 -25.7)"/><path d="M-20.3 33.9q-.25-2.8 1.5-4.55.55.95 1.6 1.4-2.25 1.3-3.1 3.15" fill="#b1dcde" transform="translate(21.35 -25.7)"/><path d="m-11.05 33.15-.2.65-1.15.1.05-.7 1.3-.05" fill="#e1ffff" transform="translate(21.35 -25.7)"/><path d="M-15.65 37.15q2.85-.95 3.25-3.25l1.15-.1q-1.3 3.15-4.4 3.35" fill="#a9d2d4" transform="translate(21.35 -25.7)"/><path d="M-15.7 36.85q-3.35-.2-4.1-2.1-.2-.4.1-.5.3-.15.65.55.5 1 3.35 2.05m-3.2-5.6 2.4.85 1.65 1.5q-1.9-.55-2.2-1-.75-.9-1.85-1.35" fill="#286f79" transform="translate(21.35 -25.7)"/><path d="M-13.7 33.65q-1.75-1.35-2.75-1.85l-1.9-1.1q-.55-.4-.65-1.2-.15-.85.45-.9.75-.1 1.45.5l-1.3-.2q0 1.3 1.35 1.85.95.45 3.35 2.9m3.6-4q-1.35-2.7-3.5-2.4-1.15.15-1.35 1.75-.25 1.8 2.15 2.9-1.65-.3-2.4-1.7-.75-1.35-.1-2.45.6-.95 1.45-1 3.15-.15 3.75 2.9" fill="#e1ffff" transform="translate(21.35 -25.7)"/><path d="M-10.1 30.1q-1.1 4-4.25 1.7 2.95.7 4.25-1.7" fill="#429aa4" transform="translate(21.35 -25.7)"/><path d="m-14.25 28.9.45-.85q.75-.7 2.1.35 1.55 1.2.25 2.4.25-1.3-.6-1.85l-2.2-.05" fill="#429aa4" transform="translate(21.35 -25.7)"/><path d="M-2.8 35.75q.3 2.5-1.25 4.5-1.5 2-4 2.3-2.5.3-4.5-1.25-1.95-1.6-2.25-4.1-.3-2.5 1.25-4.5t4-2.3q2.5-.3 4.5 1.25 1.95 1.6 2.25 4.1" fill="#0d090e" transform="translate(21.35 -25.7)"/><path d="M-13.95 37.1q-.25-2.15 1.05-3.9 1.35-1.7 3.45-1.95 2.15-.25 3.85 1.1 1.7 1.35 1.95 3.5t-1.05 3.9q-1.35 1.7-3.45 1.95-2.15.25-3.85-1.1-1.7-1.35-1.95-3.5" fill="#a9d2d4" transform="translate(21.35 -25.7)"/><path d="m-13.95 35.95.25-.55q.75-.55 3.1-.7l4.35-.5 2.15.1q-1.55 5.15-9.85 1.65" fill="#286f79" transform="translate(21.35 -25.7)"/><path d="M-4.55 32.6q-.2 1.35-1.45 2.15-1.3.85-3 .6-1.7-.2-2.75-1.3t-.85-2.45q.15-1.35 1.45-2.15 1.3-.85 3-.65 1.65.25 2.7 1.35 1.1 1.1.9 2.45" fill="#0d090e" transform="translate(21.35 -25.7)"/><path d="M-11.8 31.95q.35-2.65 3.5-2.3 1.5.25 2.35 1.3.65.9.5 1.85-.25 2.65-3.5 2.3-2.6-.35-2.85-2.55v-.6" fill="#a9d2d4" transform="translate(21.35 -25.7)"/><path d="M-6.7 32.35q-.2 1.5-2.05 1.25-1.9-.2-1.7-1.75.2-1.55 2.05-1.25 1.9.2 1.7 1.75" fill="#0d090e" transform="translate(21.35 -25.7)"/><path d="M-6.75 36.2q.45.2 2.7-1.95.3.75.45 1.55.25 2.15-1.05 3.9-1.35 1.7-3.5 1.95t-3.8-1.1q-1.7-1.3-1.95-3.5l-.05-1.1q2.4.8 2.95.55 2.4-1.1 4.25-.3" fill="#429aa4" transform="translate(21.35 -25.7)"/><path d="M-8.8 40.2q-1.75.3-2.15-1.65L-7.9 38q3-.45 2.85 0-.15.5-1.35 1.25-1.25.8-2.4.95" fill="#286f79" transform="translate(21.35 -25.7)"/><path d="M-11.3 36.15q-.95.35-2.25 0l.95-3q-.1 1.3 1.8 1.95l-.5 1.05" fill="#e1ffff" transform="translate(21.35 -25.7)"/><path d="M-13.55 36.15q1.3.35 2.25 0-.95 2.55-.3 4.65-2.05-2-1.95-4.65" fill="#b1dcde" transform="translate(21.35 -25.7)"/><path d="m-4.75 33.95.25.65-.85.85-.4-.6 1-.9" fill="#e1ffff" transform="translate(21.35 -25.7)"/><path d="m-5.35 35.45.85-.85q1.15 3.35-1.2 5.65 1.65-2.7.35-4.8" fill="#a9d2d4" transform="translate(21.35 -25.7)"/><path d="M-5.95 40.05q-2.8 2.05-4.7 1.1-.4-.25-.25-.5l.9.05q1.1.45 4.05-.65m-1.5-3.2q-1.9.85-2.5.7l-2.45.2 2.6-.95 2.35.05" fill="#286f79" transform="translate(21.35 -25.7)"/><path d="m-6.5 36.1-3.5.4-2.25.4q-.7.1-1.35-.5-.65-.55-.25-1l1.5-.6-1.15.75q.95.95 2.35.55h4.65m.15-5.65q-2.95-1.2-4.45.5-.8.9.1 2.3 1 1.6 3.65.85-1.45.9-3.05.25-1.5-.55-1.7-1.85-.15-1.2.45-1.75 1.55-1.45 3.4-1 .95.2 1.6.7" fill="#e1ffff" transform="translate(21.35 -25.7)"/><path d="M-6.05 30.85q1.8 3.95-2.25 4.2 2.8-1.4 2.25-4.2" fill="#429aa4" transform="translate(21.35 -25.7)"/><path d="m-10.2 32.75-.2-1.05q.15-1.05 1.9-1.1 2.05-.1 1.8 1.75-.65-1.2-1.7-1.1-1.65.25-1.8 1.5" fill="#429aa4" transform="translate(21.35 -25.7)"/></g></defs></svg>

<?xml version="1.0" encoding="UTF-8" standalone="no"?>
<svg xmlns:xlink="http://www.w3.org/1999/xlink" height="99.2px" width="82.2px" xmlns="http://www.w3.org/2000/svg">
  <g transform="matrix(1.0, 0.0, 0.0, 1.0, 31.0, 46.75)">
    <use height="16.9" transform="matrix(1.0, 0.0, 0.0, 1.0, -21.35, 25.7)" width="18.6" xlink:href="#shape0"/>
  </g>
  <defs>
    <g id="shape0" transform="matrix(1.0, 0.0, 0.0, 1.0, 21.35, -25.7)">
      <path d="M-10.75 35.7 Q-12.1 37.7 -14.45 38.2 -16.8 38.7 -18.8 37.35 -20.8 36.05 -21.25 33.7 -21.7 31.35 -20.4 29.3 -19.05 27.3 -16.7 26.8 -14.35 26.3 -12.35 27.6 -10.35 28.9 -9.9 31.3 -9.4 33.7 -10.75 35.7" fill="#0d090e" fill-rule="evenodd" stroke="none"/>
      <path d="M-19.7 29.75 Q-18.55 28.05 -16.5 27.6 -14.5 27.2 -12.8 28.3 -11.05 29.45 -10.7 31.45 -10.3 33.5 -11.45 35.25 -12.55 37.0 -14.6 37.4 -16.6 37.85 -18.35 36.7 -20.05 35.55 -20.45 33.55 -20.85 31.5 -19.7 29.75" fill="#a9d2d4" fill-rule="evenodd" stroke="none"/>
      <path d="M-19.0 28.95 L-18.45 28.7 Q-17.55 28.75 -15.75 30.1 -14.0 31.3 -12.3 32.45 -10.95 33.3 -10.8 33.85 -15.1 36.65 -19.0 28.95" fill="#286f79" fill-rule="evenodd" stroke="none"/>
      <path d="M-10.1 32.3 Q-11.05 33.2 -12.5 33.0 -13.95 32.75 -15.05 31.55 -16.15 30.4 -16.2 28.95 -16.3 27.45 -15.35 26.6 -13.05 24.45 -10.4 27.3 -9.3 28.5 -9.2 29.95 -9.15 31.45 -10.1 32.3" fill="#0d090e" fill-rule="evenodd" stroke="none"/>
      <path d="M-15.0 27.35 Q-13.0 25.6 -11.0 27.85 -10.0 28.9 -10.1 30.2 -10.1 31.15 -10.85 31.9 -12.8 33.65 -14.85 31.4 -16.45 29.55 -15.35 27.8 L-15.0 27.35" fill="#a9d2d4" fill-rule="evenodd" stroke="none"/>
      <path d="M-11.45 30.8 Q-12.55 31.8 -13.75 30.45 -15.0 29.1 -13.9 28.1 -12.85 27.15 -11.6 28.5 -10.4 29.75 -11.45 30.8" fill="#0d090e" fill-rule="evenodd" stroke="none"/>
      <path d="M-13.9 33.6 Q-13.65 34.1 -12.65 34.0 L-10.75 33.8 -11.35 35.2 Q-12.5 36.95 -14.55 37.4 -16.55 37.85 -18.3 36.7 -20.0 35.55 -20.4 33.55 -20.8 31.45 -19.65 29.75 L-19.0 28.95 -18.4 30.15 Q-17.95 30.95 -17.15 31.15 -14.75 31.9 -13.9 33.6" fill="#429aa4" fill-rule="evenodd" stroke="none"/>
      <path d="M-17.9 35.2 Q-18.8 34.65 -18.8 33.4 -18.8 32.05 -18.4 32.65 -18.0 33.2 -15.85 34.15 -13.4 35.7 -13.8 35.9 -15.15 36.85 -17.9 35.2" fill="#286f79" fill-rule="evenodd" stroke="none"/>
      <path d="M-17.2 30.75 Q-18.25 30.3 -18.8 29.35 L-16.3 27.75 Q-17.15 28.65 -16.2 30.25 L-17.2 30.75" fill="#e1ffff" fill-rule="evenodd" stroke="none"/>
      <path d="M-20.3 33.9 Q-20.55 31.1 -18.8 29.35 -18.25 30.3 -17.2 30.75 -19.45 32.05 -20.3 33.9" fill="#b1dcde" fill-rule="evenodd" stroke="none"/>
      <path d="M-11.05 33.15 L-11.25 33.8 -12.4 33.9 -12.35 33.2 -11.05 33.15" fill="#e1ffff" fill-rule="evenodd" stroke="none"/>
      <path d="M-15.65 37.15 Q-12.8 36.2 -12.4 33.9 L-11.25 33.8 Q-12.55 36.95 -15.65 37.15" fill="#a9d2d4" fill-rule="evenodd" stroke="none"/>
      <path d="M-15.7 36.85 Q-19.05 36.65 -19.8 34.75 -20.0 34.35 -19.7 34.25 -19.4 34.1 -19.05 34.8 -18.55 35.8 -15.7 36.85" fill="#286f79" fill-rule="evenodd" stroke="none"/>
      <path d="M-18.9 31.25 L-16.5 32.1 -14.85 33.6 Q-16.75 33.05 -17.05 32.6 -17.8 31.7 -18.9 31.25" fill="#286f79" fill-rule="evenodd" stroke="none"/>
      <path d="M-13.7 33.65 Q-15.45 32.3 -16.45 31.8 L-18.35 30.7 Q-18.9 30.3 -19.0 29.5 -19.15 28.65 -18.55 28.6 -17.8 28.5 -17.1 29.1 L-18.4 28.9 Q-18.4 30.2 -17.05 30.75 -16.1 31.2 -13.7 33.65" fill="#e1ffff" fill-rule="evenodd" stroke="none"/>
      <path d="M-10.1 29.65 Q-11.45 26.95 -13.6 27.25 -14.75 27.4 -14.95 29.0 -15.2 30.8 -12.8 31.9 -14.45 31.6 -15.2 30.2 -15.95 28.85 -15.3 27.75 -14.7 26.8 -13.85 26.75 -10.7 26.6 -10.1 29.65" fill="#e1ffff" fill-rule="evenodd" stroke="none"/>
      <path d="M-10.1 30.1 Q-11.2 34.1 -14.35 31.8 -11.4 32.5 -10.1 30.1" fill="#429aa4" fill-rule="evenodd" stroke="none"/>
      <path d="M-14.25 28.9 L-13.8 28.05 Q-13.05 27.35 -11.7 28.4 -10.15 29.6 -11.45 30.8 -11.2 29.5 -12.05 28.95 L-14.25 28.9" fill="#429aa4" fill-rule="evenodd" stroke="none"/>
      <path d="M-2.8 35.75 Q-2.5 38.25 -4.05 40.25 -5.55 42.25 -8.05 42.55 -10.55 42.85 -12.55 41.3 -14.5 39.7 -14.8 37.2 -15.1 34.7 -13.55 32.7 -12.0 30.7 -9.55 30.4 -7.05 30.1 -5.05 31.65 -3.1 33.25 -2.8 35.75" fill="#0d090e" fill-rule="evenodd" stroke="none"/>
      <path d="M-13.95 37.1 Q-14.2 34.95 -12.9 33.2 -11.55 31.5 -9.45 31.25 -7.3 31.0 -5.6 32.35 -3.9 33.7 -3.65 35.85 -3.4 38.0 -4.7 39.75 -6.05 41.45 -8.15 41.7 -10.3 41.95 -12.0 40.6 -13.7 39.25 -13.95 37.1" fill="#a9d2d4" fill-rule="evenodd" stroke="none"/>
      <path d="M-13.95 35.95 L-13.7 35.4 Q-12.95 34.85 -10.6 34.7 L-6.25 34.2 -4.1 34.3 Q-5.65 39.45 -13.95 35.95" fill="#286f79" fill-rule="evenodd" stroke="none"/>
      <path d="M-4.55 32.6 Q-4.75 33.95 -6.0 34.75 -7.3 35.6 -9.0 35.35 -10.7 35.15 -11.75 34.05 -12.8 32.95 -12.6 31.6 -12.45 30.25 -11.15 29.45 -9.85 28.6 -8.15 28.8 -6.5 29.05 -5.45 30.15 -4.35 31.25 -4.55 32.6" fill="#0d090e" fill-rule="evenodd" stroke="none"/>
      <path d="M-11.8 31.95 Q-11.45 29.3 -8.3 29.65 -6.8 29.9 -5.95 30.95 -5.3 31.85 -5.45 32.8 -5.7 35.45 -8.95 35.1 -11.55 34.75 -11.8 32.55 L-11.8 31.95" fill="#a9d2d4" fill-rule="evenodd" stroke="none"/>
      <path d="M-6.7 32.35 Q-6.9 33.85 -8.75 33.6 -10.65 33.4 -10.45 31.85 -10.25 30.3 -8.4 30.6 -6.5 30.8 -6.7 32.35" fill="#0d090e" fill-rule="evenodd" stroke="none"/>
      <path d="M-6.75 36.2 Q-6.3 36.4 -4.05 34.25 -3.75 35.0 -3.6 35.8 -3.35 37.95 -4.65 39.7 -6.0 41.4 -8.15 41.65 -10.3 41.9 -11.95 40.55 -13.65 39.25 -13.9 37.05 L-13.95 35.95 Q-11.55 36.75 -11.0 36.5 -8.6 35.4 -6.75 36.2" fill="#429aa4" fill-rule="evenodd" stroke="none"/>
      <path d="M-8.8 40.2 Q-10.55 40.5 -10.95 38.55 L-7.9 38.0 Q-4.9 37.55 -5.05 38.0 -5.2 38.5 -6.4 39.25 -7.65 40.05 -8.8 40.2" fill="#286f79" fill-rule="evenodd" stroke="none"/>
      <path d="M-11.3 36.15 Q-12.25 36.5 -13.55 36.15 L-12.6 33.15 Q-12.7 34.45 -10.8 35.1 L-11.3 36.15" fill="#e1ffff" fill-rule="evenodd" stroke="none"/>
      <path d="M-13.55 36.15 Q-12.25 36.5 -11.3 36.15 -12.25 38.7 -11.6 40.8 -13.65 38.8 -13.55 36.15" fill="#b1dcde" fill-rule="evenodd" stroke="none"/>
      <path d="M-4.75 33.95 L-4.5 34.6 -5.35 35.45 -5.75 34.85 -4.75 33.95" fill="#e1ffff" fill-rule="evenodd" stroke="none"/>
      <path d="M-5.35 35.45 L-4.5 34.6 Q-3.35 37.95 -5.7 40.25 -4.05 37.55 -5.35 35.45" fill="#a9d2d4" fill-rule="evenodd" stroke="none"/>
      <path d="M-5.95 40.05 Q-8.75 42.1 -10.65 41.15 -11.05 40.9 -10.9 40.65 L-10.0 40.7 Q-8.9 41.15 -5.95 40.05" fill="#286f79" fill-rule="evenodd" stroke="none"/>
      <path d="M-7.45 36.85 Q-9.35 37.7 -9.95 37.55 L-12.4 37.75 -9.8 36.8 -7.45 36.85" fill="#286f79" fill-rule="evenodd" stroke="none"/>
      <path d="M-6.5 36.1 L-10.0 36.5 -12.25 36.9 Q-12.95 37.0 -13.6 36.4 -14.25 35.85 -13.85 35.4 L-12.35 34.8 -13.5 35.55 Q-12.55 36.5 -11.15 36.1 L-6.5 36.1" fill="#e1ffff" fill-rule="evenodd" stroke="none"/>
      <path d="M-6.35 30.45 Q-9.3 29.25 -10.8 30.95 -11.6 31.85 -10.7 33.25 -9.7 34.85 -7.05 34.1 -8.5 35.0 -10.1 34.35 -11.6 33.8 -11.8 32.5 -11.95 31.3 -11.35 30.75 -9.8 29.3 -7.95 29.75 -7.0 29.95 -6.35 30.45" fill="#e1ffff" fill-rule="evenodd" stroke="none"/>
      <path d="M-6.05 30.85 Q-4.25 34.8 -8.3 35.05 -5.5 33.65 -6.05 30.85" fill="#429aa4" fill-rule="evenodd" stroke="none"/>
      <path d="M-10.2 32.75 L-10.4 31.7 Q-10.25 30.65 -8.5 30.6 -6.45 30.5 -6.7 32.35 -7.35 31.15 -8.4 31.25 -10.05 31.5 -10.2 32.75" fill="#429aa4" fill-rule="evenodd" stroke="none"/>
    </g>
  </defs>
</svg>
